!!!!SEGMENT: pl-kk--kk-i-636--001-008_anonim--in-corona-domini-responsorium-5tum.krn
!!!cenid: 18xx:4530
!!!COM: Anonim
!!!COM-rismID: pe30004985
!!!CDT:
!!!CNT:
!!!OPR: In Corona Domini
!!!OTL: Responsorium 5tum
!!!OMV: 008
!!!PDT:
!!!AGN: Sacred
!!!YEC: Copyright 2022 Narodowy Instytut Fryderyka Chopina (https://polishscores.org)
!!!YEM: License CC-BY-4.0 (https://creativecommons.org/licenses/by/4.0)
!!!SMS-siglum: PL-Kk
!!!SMS-shelfmark: Kk.I.636
!!!SMS-variant:
!!!SMS-altvar:
!!!SMS-shelfwork: 001-008 M
!!!NIFC-rismSourceID: 1001216440
!!!NIFC-rismChildID: 1001216910
!!!NIFC-islandoraID: pl-kk:40786
!!!URL-pdf-islandora: https://repozytorium.nifc.pl/islandora/object/pl-kk%3A40786/datastream/PDF/view
!!!URL-scan: https://polish.musicsources.pl/pl/lokalizacje/galeria/rekopisy/7271/1 @EN{Scan on Polish Music Sources Website} @PL{Skany w portalu Dziedzictwo Muzyki Polskiej w otwartym dostępie}
!!!IIIF:
!!!ONB-nifc: UWAGA: Lamentacje i Responsoria In Corona Domini na skanach: S – 1-7, A – 24-30, T – 45-52, B – 70-78. Każda Lamentacja i Responsorium to oddzielne pliki.
!!!OMD:
!!!AIN: 1 alto 1 bass 1 soprn 1 tenor
!!!key: E-
**kern	**text	**kern	**text	**kern	**text	**kern	**text
*part4	*part4	*part3	*part3	*part2	*part2	*part1	*part1
*staff4	*staff4	*staff3	*staff3	*staff2	*staff2	*staff1	*staff1
*I"Basso.	*	*I"Tenore.	*	*I"Alto.	*	*I"Soprano.	*
*I'B	*	*I'T	*	*I'A	*	*I'S	*
*Ibass	*	*Itenor	*	*Ialto	*	*Isoprn	*
*ICvox	*	*ICvox	*	*ICvox	*	*ICvox	*
*clefF4	*	*clefC4	*	*clefC3	*	*clefC1	*
*clefF4	*	*clefC4	*	*clefC3	*	*clefC1	*
*k[b-e-a-]	*	*k[b-e-a-]	*	*k[b-e-a-]	*	*k[b-e-a-]	*
*E-:	*	*E-:	*	*E-:	*	*E-:	*
*M3/2	*	*M3/2	*	*M3/2	*	*M3/2	*
=1	=1	=1	=1	=1	=1	=1	=1
!!LO:TX:t=P:problem=all\right:global
1E-	Ju-	1B-	Ju-	1e-	Ju-	1e-	Ju-
*2\right	*	*2\right	*	*2\right	*	*2\right	*
2E-\	-das	2B-\	-das	2e-\	-das	2g\	-das
=2	=2	=2	=2	=2	=2	=2	=2
2E-\	mer-	2B-\	mer-	2f\	mer-	2b-\	mer-
4D\	-ca-	2B-\	-ca-	2f\	-ca-	2b-\	-ca-
4C\	.	.	.	.	.	.	.
2D\	-tor	2B-\	-tor	2f\	-tor	2b-\	-tor
!LO:LB:g=original	!	!LO:LB:g=original	!	!LO:LB:g=original	!	!LO:LB:g=original	!
=3	=3	=3	=3	=3	=3	=3	=3
2E-\	pes-	2.B-\	pes-	2e-\	pes-	2g/	pes-
2E-\	-si-	.	.	2e-\	-si-	2e-/	-si-
.	.	4e-\	-si-	.	.	.	.
2E-\	-mus	2e-\	-mus	2e-\	-mus	2e-/	-mus,
=4	=4	=4	=4	=4	=4	=4	=4
4A-\	os-	4A-\	o-	4e-\	o-	4cc\	o-
4A-\	-cu-	4A-\	-scu-	4e-\	-scu-	4cc\	-scu-
4A-\	-lo	4A-\	-lo	4e-\	-lo	4cc\	-lo
4A-\	pe-	4A-\	pe-	4e-\	pe-	4cc\	pe-
4G\	-ti-	4B-\	-ti-	4e-\	-ti-	4b-\	-ti-
4G\	-it	4B-\	-it	4e-\	-it	4b-\	-it
=5	=5	=5	=5	=5	=5	=5	=5
1F	Do-	1c	Do-	2e-\	Do-	1a-	Do-
.	.	.	.	4d\	.	.	.
.	.	.	.	4c\	.	.	.
2F\	-mi-	2B-\	-mi-	2d\	-mi-	2a-\	-mi-
=6	=6	=6	=6	=6	=6	=6	=6
2E-\	-num	2B-\	-num,	2e-\	-num,	2g\	-num,
2r	.	2r	.	2r	.	2r	.
2r	.	2r	.	2r	.	2g\	o-
!LO:LB:g=original	!	!LO:LB:g=original	!	!LO:LB:g=original	!	!LO:LB:g=original	!
=7	=7	=7	=7	=7	=7	=7	=7
2r	.	2r	.	2r	.	4cc\	.
.	.	.	.	.	.	4cc\	-scu-
2r	.	2r	.	2r	.	2cc\	-lo
[2E-\	pe-	[2c\	pe-	2g\	pe-	2b-\	pe-
=8	=8	=8	=8	=8	=8	=8	=8
2E-\]	.	2c\]	.	1g	-ti-	1cc	-ti-
2E-\	-ti-	2c\	-ti-	.	.	.	.
2E-\	-it	2c\	-it	2g\	-it	2b-\	-it
=9	=9	=9	=9	=9	=9	=9	=9
1.F	Do-	1e-	Do-	1.f	Do-	1an	Do-
.	.	2d\	.	.	.	2b-\	.
=10	=10	=10	=10	=10	=10	=10	=10
1F	.	1c	.	1f	.	2b-\	.
.	.	.	.	.	.	4an\	.
.	.	.	.	.	.	4g\	.
2F\	-mi-	2c\	-mi-	2f\	-mi-	2a\	-mi-
!	!	!	!	!	!	!LO:LB:g=original	!
=11	=11	=11	=11	=11	=11	=11	=11
1BB-	-num,	1d	-num,	2f\	-num,	1b-	-num,
.	.	.	.	2r	.	.	.
2r	.	2r	.	2r	.	2r	.
!	!	!LO:LB:g=original	!	!	!	!	!
=12	=12	=12	=12	=12	=12	=12	=12
!LO:TX:a:t=2.	!	!	!	!	!	!	!
0.r	.	2B-\	il-	2d\	il-	2f/	il-
.	.	2B-\	-le	2d\	-le	2f/	-le
.	.	2e-\	ut	2e-\	ut	2g\	ut
!	!	!	!	!LO:LB:g=original	!	!	!
=13	=13	=13	=13	=13	=13	=13	=13
.	.	2d\	ag-	2f\	ag-	2a-X\	ag-
.	.	2e-\	-nus	2e-\	-nus,	2g\	-nus
.	.	2r	.	2r	.	2r	.
!LO:LB:g=original	!	!	!	!	!	!	!
=14	=14	=14	=14	=14	=14	=14	=14
2E-\	ut	2e-\	ut	2g\	ut	2b-\	ut
2E-\	ag-	2e-\	ag-	2g\	ag-	2b-\	ag-
2A-\	-nus	2e-\	-nus	2a-\	-nus	2cc\	-nus
!	!	!	!	!	!	!LO:PB:g=original	!
=15	=15	=15	=15	=15	=15	=15	=15
4.G\	in-	4.e-\	in-	4.b-\	in-	4.dd-X\	in-
8G\	-no-	8e-\	-no-	8b-\	-no-	8dd-\	-no-
2A-\	-cens,	2e-\	-cens	2a-\	-cens,	2cc\	-cens,
2r	.	2r	.	2r	.	2r	.
!	!	!LO:LB:g=original	!	!	!	!	!
=16	=16	=16	=16	=16	=16	=16	=16
2A-\	ut	2e-\	ut	2a-\	ut	2cc\	ut
2A-\	ag-	2e-\	ag-	2a-\	ag-	2cc\	ag-
2A-\	-nus	2e-\	-nus	2a-\	-nus	2cc\	-nus
!	!	!	!	!LO:LB:g=original	!	!	!
=17	=17	=17	=17	=17	=17	=17	=17
4.F\	in-	4.B-\	in-	4.a-\	in-	4.ddn\	in-
8F\	-no-	8B-\	-no-	8a-\	-no-	8dd\	-no-
2E-\	-cens,	2B-\	-cens,	2g\	-cens,	2ee-\	-cens,
2r	.	2r	.	2r	.	2r	.
!LO:LB:g=original	!	!	!	!	!	!LO:LB:g=original	!
=18	=18	=18	=18	=18	=18	=18	=18
2C/	ut	2F/	ut	2e-\	ut	2an\	ut
2C/	ag-	2F/	ag-	2e-\	ag-	2a\	ag-
2F\	-nus	2c\	-nus	2e-\	-nus	2a\	-nus
=19	=19	=19	=19	=19	=19	=19	=19
4.B-\	in-	4.B-\	in-	4.d\	in-	4.b-\	in-
8BB-/	-no-	8B-\	-no-	8d\	-no-	8b-\	-no-
2BB-/	-cens,	2B-\	-cens,	2d\	-cens,	2b-\	-cens,
!LO:TX:b:i:t=Volti Subitto.	!	!	!	!	!	!	!
2r	.	2r	.	2r	.	2r	.
!LO:PB:g=original	!	!LO:LB:g=original	!	!LO:PB:g=original	!	!	!
=20	=20	=20	=20	=20	=20	=20	=20
4r	.	2r	.	4r	.	[1.ee-	non,
4E-\	non,	.	.	4g\	non,	.	.
4F\	.	[1e-	non,	4a-\	.	.	.
4E-\	.	.	.	4g\	.	.	.
4F\	.	.	.	4a-\	.	.	.
4G\	.	.	.	4b-\	.	.	.
=21	=21	=21	=21	=21	=21	=21	=21
2A-\	.	2e-\]	.	2cc\	.	2ee-\]	.
2r	.	2r	.	4r	.	4r	.
.	.	.	.	4cc\	ne-	4ee-\	ne-
2r	.	2r	.	4b-\	-ga-	4dd\	-ga-
.	.	.	.	4a-\	-vit	4cc\	-vit
!	!	!	!	!	!	!LO:LB:g=original	!
=22	=22	=22	=22	=22	=22	=22	=22
1B-	Ju-	4B-\	non	2g\	Ju-	2b-\	Ju-
.	.	4B-\	ne-	.	.	.	.
.	.	2d\	-ga-	2f\	.	2a-\	.
2c\	-de	2e-\	-vit	2e-\	-de	2g\	-de
=23	=23	=23	=23	=23	=23	=23	=23
2A-\	o-	2c\	Ju-	2e-\	os-	1f	os-
2B-\	.	2B-\	.	4d\	.	.	.
.	.	.	.	4c\	.	.	.
2BB-/	-scu-	2B-\	-de	2d\	-cu-	2f/	-cu-
!LO:LB:g=original	!	!LO:LB:g=original	!	!LO:LB:g=original	!	!	!
=24	=24	=24	=24	=24	=24	=24	=24
2E-\	-lum,	2B-\	os-	2e-\	-lum,	2g\	-lum
2.B-\	os-	2.B-\	.	2.f\	os-	2.dd\	os-
4BB-/	-cu-	4B-\	-cu-	4f\	-cu-	4dd\	-cu-
=25	=25	=25	=25	=25	=25	=25	=25
1E-	-lum,	1B-	-lum,	1g	-lum,	1ee-	-lum.
!	!	!LO:TX:b:i:t=Volti Subitto.	!	!	!	!	!
2r	.	2r	.	2r	.	2r	.
!	!	!LO:PB:g=original	!	!	!	!	!
=26	=26	=26	=26	=26	=26	=26	=26
!	!	!	!	!	!	!LO:TX:a:t=3	!
1.B-	De-	1.d	De-	1.f	De-	0.r	.
=27	=27	=27	=27	=27	=27	=27	=27
4An\	-na-	4c\	-na-	4f\	-na-	.	.
4A\	-ri-	4c\	-ri-	4f\	-ri-	.	.
2A\	-o-	2c\	-o-	2f\	-o-	.	.
2A\	-rum	2c\	-rum	2f\	-rum	.	.
=28	=28	=28	=28	=28	=28	=28	=28
2G\	nu-	2B-\	nu-	2f\	nu-	1.r	.
2G\	-me-	2B-\	-me-	2e-\	-me-	.	.
2G\	-ro	2B-\	-ro	2g\	-ro	.	.
!LO:LB:g=original	!	!	!	!LO:LB:g=original	!	!LO:LB:g=original	!
=29	=29	=29	=29	=29	=29	=29	=29
2An\	Chri-	2c\	Chri-	2g\	Chri-	2r	.
2A\	-stum	2c\	-stum	2f\	-stum	2r	.
2A\	Ju-	2c\	Ju-	2e-\	Ju-	2f/	Ju-
!	!	!LO:LB:g=original	!	!	!	!	!
=30	=30	=30	=30	=30	=30	=30	=30
2.B-\	-de-	2c\	-de-	2e-\	-de-	1b-	-de-
.	.	2B-\	.	2d\	.	.	.
4BB-/	.	.	.	.	.	.	.
2D\	-is	2B-\	-is	2f\	-is	2b-\	-is
=31	=31	=31	=31	=31	=31	=31	=31
1E-	tra-	1B-	tra-	1g	tra-	1cc	tra-
2E-\	-di-	2B-\	-di-	2g\	-di-	2cc\	-di-
=32	=32	=32	=32	=32	=32	=32	=32
1F	-dit	1B-	-dit,	1a-	-dit	1dd	-dit,
2A-\	Ju-	2B-\	Ju-	2f\	Ju-	2dd\	Ju-
=33	=33	=33	=33	=33	=33	=33	=33
2G\	-de-	1B-	-de-	2e-\	-de-	2ee-\	-de-
2F\	.	.	.	2f\	.	2dd\	.
2En\	-is	2B-\	-is	2g\	-is	2cc\	-is
!LO:LB:g=original	!	!	!	!LO:LB:g=original	!	!LO:LB:g=original	!
=34	=34	=34	=34	=34	=34	=34	=34
1.F	tra-	(1.d	tra-	1.f	tra-	1.b-	tra-
!	!	!LO:LB:g=original	!	!	!	!	!
=35	=35	=35	=35	=35	=35	=35	=35
1F	.	1c)	.	1f	.	1b-	.
2F\	-di-	2c\	-di-	4f\	.	2an\	-di-
.	.	.	.	4e-\	-di-	.	.
=36	=36	=36	=36	=36	=36	=36	=36
1BB-	-dit,	1d	-dit,	1d	-dit,	1b-	-dit
2r	.	2r	.	2r	.	2r	.
=37	=37	=37	=37	=37	=37	=37	=37
4r	.	4r	.	4r	.	1ee-	me-
4E-\	me-	1e-	me-	4g\	me-	.	.
4F\	.	.	.	4a-\	.	.	.
4E-\	.	.	.	4g\	.	.	.
4F\	.	.	.	4a-\	.	2ee-\	-li-
4G\	-li-	4e-\	-li-	4b-\	-li-	.	.
=38	=38	=38	=38	=38	=38	=38	=38
2A-\	-us,	2e-\	-us,	2cc\	-us	2ee-\	-us,
2r	.	2r	.	4r	.	4r	.
.	.	.	.	4cc\	il-	4ee-\	il-
2r	.	2r	.	4b-\	.	4dd\	.
.	.	.	.	4a-\	-li	4cc\	-li
!LO:LB:g=original	!	!	!	!LO:LB:g=original	!	!	!
=39	=39	=39	=39	=39	=39	=39	=39
1B-	e-	4r	.	2g\	e-	2b-\	e-
.	.	4B-\	e-	.	.	.	.
.	.	2d\	.	2f\	.	2a-\	.
2c\	-rat	2e-\	-rat	2e-\	-rat	2g\	-rat
!	!	!LO:LB:g=original	!	!	!	!LO:LB:g=original	!
=40	=40	=40	=40	=40	=40	=40	=40
2A-\	si-	2c\	si-	2e-\	si-	2f/	si-
2B-\	-na-	2B-\	-na-	4d\	-na-	2f/	-na-
.	.	.	.	4c\	.	.	.
2BB-/	-tus	2B-\	-tus	2d\	-tus	2f/	-tus
=41	=41	=41	=41	=41	=41	=41	=41
2E-\	non	4B-\	non	2e-\	non	2g\	non
.	.	4B-\	fu-	.	.	.	.
2.B-\	.	1B-	-is-	2.f\	.	2.dd\	.
4BB-/	fu-	.	.	4f\	fu-	4dd\	fu-
=42	=42	=42	=42	=42	=42	=42	=42
2E-\	-is-	1.B-	-set.	2g\	-is-	2ee-\	-is-
2E-\	-set.	.	.	2g\	-set.	2ee-\	-set.
2r	.	.	.	2r	.	2r	.
==	==	==	==	==	==	==	==
*-	*-	*-	*-	*-	*-	*-	*-
!!!system-decoration: [(s1,s2,s3,s4)]
!!!ENC: Anastazja Marusiak
!!!END: 2023-11-14
!!!EED: Marta Chmielewska
!!!EEV: 2024-06-03
